%
O0001 (ARIA BRACKET 100x60x40mm AL6061)
(GENERATED: 2026-04-15 FROM ARIA-OS RUN 20260409T215033_a3f1c9b2)
(MATERIAL: AL6061-T6)
(PART: bracket_100x60x40mm_4xM6)
(MACHINE: HAAS VF-2)
(TOOL 1: 12mm 4-FLUTE CARBIDE ENDMILL - ROUGHING)
(TOOL 2:  6mm 4-FLUTE CARBIDE ENDMILL - FINISHING)
(TOOL 3:  5mm DRILL - M6 TAP DRILL)
(TOOL 4:  M6 PLUG TAP)
(STOCK: 110x70x45mm AL6061-T6)
N10 G20
N20 G17 G40 G49 G80 G90
N30 G28 G91 Z0
N40 G90
(--- OP 1: FACE MILL TOP SURFACE ---)
N50 T01 M06
N60 G90 G54 G00 X-55. Y-35. S5000 M03
N70 G43 H01 Z5. M08
N80 G01 Z-0.5 F500.
N90 X55. F800.
N100 Y-15.
N110 X-55.
N120 Y5.
N130 X55.
N140 Y25.
N150 X-55.
N160 Y35.
N170 X55.
N180 G00 Z5.
(--- OP 2: PROFILE ROUGH ---)
N190 G00 X-55. Y-35.
N200 G01 Z-39.5 F300.
N210 G41 D01
N220 G01 X50. F600.
N230 Y35.
N240 X-50.
N250 Y-35.
N260 X-55.
N270 G40
N280 G00 Z5.
(--- OP 3: PROFILE FINISH ---)
N290 T02 M06
N300 G90 G54 G00 X-52. Y-32. S8000 M03
N310 G43 H02 Z5. M08
N320 G01 Z-40. F200.
N330 G41 D02
N340 G01 X50. F400.
N350 G02 X50. Y-35. R3.
N360 G01 X-50.
N370 G02 X-53. Y-32. R3.
N380 G01 Y32.
N390 G02 X-50. Y35. R3.
N400 G01 X50.
N410 G02 X53. Y32. R3.
N420 G01 Y-32.
N430 G02 X50. Y-35. R3.
N440 G40
N450 G00 Z5.
(--- OP 4: DRILL M6 HOLES (4x) ---)
N460 T03 M06
N470 G90 G54 G00 X-35. Y-20. S3000 M03
N480 G43 H03 Z5. M08
N490 G81 Z-44. R2. F150.
N500 X35. Y-20.
N510 X35. Y20.
N520 X-35. Y20.
N530 G80
N540 G00 Z5.
(--- OP 5: TAP M6 HOLES ---)
N550 T04 M06
N560 G90 G54 G00 X-35. Y-20. S300 M03
N570 G43 H04 Z5. M08
N580 G84 Z-38. R2. F300.
N590 X35. Y-20.
N600 X35. Y20.
N610 X-35. Y20.
N620 G80
N630 G00 Z5.
N640 G28 G91 Z0
N650 G28 Y0
N660 M09
N670 M30
%
